X:3295
T:Woman I Never Forgot, The
T:Lafferty's
D:Planxty.
M:C|
K:Edor
"Em"B2 AF BFAF|EDEF ED DA|B2 AF BFAF|"D"DFBA FE !roll!E2|
"Em"B2 AF BFAF|EDEF ED DA|BE 1ROLL!E2 "D"DEFA|"G"B2 "D"AF "Em"FE !roll!E2:|]
eB !roll!B2 egfe|"D"d2 fd Adfd|"C"eB !roll!B2 egfe|"D"dBAF FE !roll!E2|
"Em"eB !roll!B2 egfe|"D"d2 fd Adfd|"C"!roll!B2 Bd efge|"D"dBAF FE "Em"!roll!E2:|]

